X:58
T:Reel du Patineur
M:4/4
L:1/8
K:A
E |: fedc BcdB | cABG A3E | EAGA BcdB | cBAc BGE2 |
fedc BcdB | cABG A3E | EAGA BcdB |1 cABG A2E2 :|2 cABG A2e2 |:
ecAc ecfc | ecAc ecfc | ecAc ecBA | GABc d2cd |
ecAc ecfc | ecAc eAce | agfe dcBA |1 GABc d2e2 :|2 GABG A4 |]

